X:25
T:Bourr\'ee du diable
R:Bourr\'ee
Z:Bert Van Vreckem <http://flanders.blackmill.net/music/> 2005-09-20
M:2/4
L:1/8
K:Cm
"Cm"cd2e|"G7"d>c =BG|"Cm"cd2e|"F"f>e de|"Cm"cd2e|"G7"d>c =BG|"Cm"ce "G7"d=B|[1"Ab"cz c2:|[2"Cm"cz c2||
|:"Cm"cd2e|"Fm"f>e de|"G7"g ^f2 e|d>c =BG|"Cm"cd2e|"G7"d>c =BG|"Cm"ce "G7"d=B|[1"Ab"cz c2:|[2"Cm"cz c2|]

